#define stretch_width 32
#define stretch_height 32
static unsigned char stretch_bits[] = {
   0x00, 0x00, 0x00, 0x00, 0x00, 0x00, 0x00, 0x18, 0x00, 0x00, 0x00, 0x24,
   0x00, 0x10, 0x10, 0xc4, 0x00, 0x28, 0x28, 0x84, 0x00, 0x48, 0x24, 0x84,
   0x00, 0x44, 0x44, 0x84, 0x00, 0x84, 0x42, 0x84, 0x00, 0x82, 0x83, 0x42,
   0x00, 0x02, 0x80, 0x42, 0x00, 0x22, 0x88, 0x42, 0x00, 0x22, 0x88, 0x42,
   0x00, 0x22, 0x88, 0x42, 0x00, 0x02, 0x80, 0x42, 0x00, 0x3a, 0xb9, 0x42,
   0x00, 0x04, 0x00, 0x41, 0x00, 0x04, 0x00, 0x40, 0x00, 0x04, 0x00, 0x40,
   0x00, 0x04, 0x00, 0x40, 0xff, 0x03, 0x00, 0x40, 0x01, 0x00, 0x00, 0x40,
   0x01, 0xe0, 0x7f, 0x40, 0x01, 0x10, 0x80, 0x40, 0x03, 0x1c, 0x80, 0x40,
   0x04, 0x02, 0x80, 0x40, 0x04, 0x02, 0x80, 0x40, 0xfc, 0x03, 0x80, 0x7f,
   0x00, 0x00, 0x00, 0x00, 0x00, 0x00, 0x00, 0x00, 0x00, 0x00, 0x00, 0x00,
   0x00, 0x00, 0x00, 0x00, 0x00, 0x00, 0x00, 0x00};
