#define stretch_mask_width 32
#define stretch_mask_height 32
static unsigned char stretch_mask_bits[] = {
   0x00, 0x00, 0x00, 0x00, 0x00, 0x00, 0x00, 0x18, 0x00, 0x00, 0x00, 0x3c,
   0x00, 0x10, 0x10, 0xfc, 0x00, 0x38, 0x38, 0xfc, 0x00, 0x78, 0x3c, 0xfc,
   0x00, 0x7c, 0x7c, 0xfc, 0x00, 0xfc, 0x7e, 0xfc, 0x00, 0xfe, 0xff, 0x7e,
   0x00, 0xfe, 0xff, 0x7e, 0x00, 0xfe, 0xff, 0x7e, 0x00, 0xfe, 0xff, 0x7e,
   0x00, 0xfe, 0xff, 0x7e, 0x00, 0xfe, 0xff, 0x7e, 0x00, 0xfe, 0xff, 0x7e,
   0x00, 0xfc, 0xff, 0x7f, 0x00, 0xfc, 0xff, 0x7f, 0x00, 0xfc, 0xff, 0x7f,
   0x00, 0xfc, 0xff, 0x7f, 0xff, 0xff, 0xff, 0x7f, 0xff, 0xff, 0xff, 0x7f,
   0xff, 0xff, 0xff, 0x7f, 0xff, 0x1f, 0x80, 0x7f, 0xff, 0x1f, 0x80, 0x7f,
   0xfc, 0x03, 0x80, 0x7f, 0xfc, 0x03, 0x80, 0x7f, 0xfc, 0x03, 0x80, 0x7f,
   0x00, 0x00, 0x00, 0x00, 0x00, 0x00, 0x00, 0x00, 0x00, 0x00, 0x00, 0x00,
   0x00, 0x00, 0x00, 0x00, 0x00, 0x00, 0x00, 0x00};
