#define tailflick_width 32
#define tailflick_height 32
static unsigned char tailflick_bits[] = {
   0x00, 0x00, 0x00, 0x00, 0x00, 0x00, 0x00, 0x00, 0x00, 0x00, 0x00, 0x00,
   0x00, 0x10, 0x10, 0x00, 0x00, 0x28, 0x28, 0x00, 0x00, 0x48, 0x24, 0x00,
   0x00, 0x44, 0x44, 0x00, 0x00, 0x84, 0x42, 0x00, 0x00, 0x82, 0x83, 0x00,
   0x00, 0x02, 0x80, 0x00, 0x00, 0x22, 0x88, 0x00, 0x00, 0x22, 0x88, 0x00,
   0x00, 0x22, 0x88, 0x00, 0x00, 0x02, 0x80, 0x00, 0x00, 0x3a, 0xb9, 0x0e,
   0x00, 0x04, 0x40, 0x16, 0x00, 0x08, 0x20, 0x28, 0x00, 0x70, 0x1c, 0x50,
   0x00, 0x40, 0x04, 0x60, 0x00, 0x20, 0x08, 0x50, 0x00, 0x10, 0x10, 0x28,
   0x00, 0x08, 0x20, 0x14, 0x00, 0x0b, 0xa0, 0x0d, 0x80, 0x0c, 0x61, 0x0e,
   0x40, 0x18, 0x31, 0x04, 0x40, 0x10, 0x11, 0x04, 0xc0, 0x11, 0x11, 0x7f,
   0x60, 0x90, 0x13, 0x84, 0xe0, 0xff, 0xfe, 0x7f, 0x00, 0x00, 0x00, 0x00,
   0x00, 0x00, 0x00, 0x00, 0x00, 0x00, 0x00, 0x00};
